X: 12333
T: Falcarragh, The
R: hornpipe
M: 4/4
K: Dmajor
AG|:FDGD ADBD|ABcA d2 dc|dBGB A3F|EF^GE A3=G|
FDGD ADBD|ABcA d2 dc|dBGB AFEF|1 D2 (3DDD D2:|2 D2 (3DDD D2 de||
|:fA^GA eA^GA|dAFA D3B|dBGB A3F|EF^GE A3e|
fA^GA eA^GA|dAFA D3B|dBGB AFEF|1 D2 (3DDD D2 de:|2 D2 (3DDD D2||

